src/topics/icons/haxe.svg

<svg height="256" preserveAspectRatio="xMidYMid" viewBox="0 0 256 256" width="256" xmlns="http://www.w3.org/2000/svg"><path d="m127.945883.00796951-72.8734837 8.07046849-55.0723993 23.9161045h63.970692l63.975191-31.99086753" fill="#fbc707" transform="matrix(1 0 0 -1 0 31.998218)"/><path d="m127.945883.00796951 74.542425 6.40173185 53.403458 25.58484114h-63.975191l-63.970692-31.99086753" fill="#fbc707" transform="matrix(1 0 0 -1 0 31.998218)"/><path d="m127.945883 255.885829 69.535806-2.503309 58.410077-29.483264h-63.975191l-63.970692 31.992095" fill="#f68712" transform="matrix(1 0 0 -1 0 479.790608)"/><path d="m127.945883 255.885625h-70.0920515l-57.8538315-31.986369h63.970692l63.975191 31.991891" fill="#f25c19" transform="matrix(1 0 0 -1 0 479.790402)"/><path d="m31.985346 255.88951v-67.307347l-31.985346-60.635264v63.970692l31.985346 63.973556" fill="#fff200" transform="matrix(1 0 0 -1 0 383.838046)"/><path d="m31.985346.00367497-5.2837192 66.75764583-26.7016268 61.1872152v-63.9702835l31.985346-63.97294151" fill="#fff200" transform="matrix(1 0 0 -1 0 127.95221)"/><path d="m223.900899.00367497 6.957977 70.09532363 25.03289 57.8495374v-63.9702835l-31.990867-63.97294151" fill="#f1471d" transform="matrix(1 0 0 -1 0 127.95221)"/><path d="m223.900899 255.88951 5.845281-75.095398 26.145382-52.847213v63.970692l-31.990663 63.973556" fill="#f1471d" transform="matrix(1 0 0 -1 0 383.838046)"/><path d="m0 127.948536 127.945883-31.9865735-20.582517-81.4916087-75.37802-14.46667883-31.985346 127.93811203" fill="#fab20b" transform="matrix(1 0 0 -1 0 127.95221)"/><path d="m255.891766 127.948536-31.990867-127.94486103-85.941983 15.58305543-10.013237 80.3791176 127.946087 31.975939" fill="#f47216" transform="matrix(1 0 0 -1 0 127.95221)"/><path d="m255.891766 127.954875-127.945883 31.986369 14.463407 84.827446 81.491609 11.122457 31.990867-127.928501" fill="#f25c19" transform="matrix(1 0 0 -1 0 383.846022)"/><path d="m0 127.948536 31.985346 127.942611 77.046757-17.241567 18.91378-78.714471-127.945883-31.978802" fill="#f89c0e" transform="matrix(1 0 0 -1 0 383.839682)"/><path d="m127.945883 223.904778-95.960537-95.958288 95.960537-95.956242 95.955016 95.956242-95.955016 95.953993" fill="#f68712" transform="matrix(1 0 0 -1 0 255.895026)"/></svg>

<?xml version="1.0" encoding="UTF-8" standalone="no"?>
<svg width="256px" height="256px" viewBox="0 0 256 256" version="1.1" xmlns="http://www.w3.org/2000/svg" xmlns:xlink="http://www.w3.org/1999/xlink" preserveAspectRatio="xMidYMid">
	<g>
		<path d="M127.945883,0.00796951499 L55.0723993,8.078438 L0,31.9945425 L63.970692,31.9945425 L127.945883,0.00367497216" fill="#FBC707" transform="translate(63.972942, 15.999109) scale(1, -1) translate(-63.972942, -15.999109) "></path>
		<path d="M127.945883,0.00796951499 L202.488308,6.40970136 L255.891766,31.9945425 L191.916575,31.9945425 L127.945883,0.00367497216" fill="#FBC707" transform="translate(191.918825, 15.999109) scale(1, -1) translate(-191.918825, -15.999109) "></path>
		<path d="M127.945883,255.885829 L197.481689,253.38252 L255.891766,223.899256 L191.916575,223.899256 L127.945883,255.891351" fill="#F68712" transform="translate(191.918825, 239.895304) scale(1, -1) translate(-191.918825, -239.895304) "></path>
		<path d="M127.945883,255.885625 L57.8538315,255.885625 L0,223.899256 L63.970692,223.899256 L127.945883,255.891147" fill="#F25C19" transform="translate(63.972942, 239.895201) scale(1, -1) translate(-63.972942, -239.895201) "></path>
		<path d="M31.985346,255.88951 L31.985346,188.582163 L0,127.946899 L0,191.917591 L31.985346,255.891147" fill="#FFF200" transform="translate(15.992673, 191.919023) scale(1, -1) translate(-15.992673, -191.919023) "></path>
		<path d="M31.985346,0.00367497216 L26.7016268,66.7613208 L0,127.948536 L0,63.9782525 L31.985346,0.00531098847" fill="#FFF200" transform="translate(15.992673, 63.976105) scale(1, -1) translate(-15.992673, -63.976105) "></path>
		<path d="M223.900899,0.00367497216 L230.858876,70.0989986 L255.891766,127.948536 L255.891766,63.9782525 L223.900899,0.00531098847" fill="#F1471D" transform="translate(239.896332, 63.976105) scale(1, -1) translate(-239.896332, -63.976105) "></path>
		<path d="M223.900899,255.88951 L229.74618,180.794112 L255.891562,127.946899 L255.891562,191.917591 L223.900899,255.891147" fill="#F1471D" transform="translate(239.896230, 191.919023) scale(1, -1) translate(-239.896230, -191.919023) "></path>
		<path d="M0,127.948536 L127.945883,95.9619625 L107.363366,14.4703538 L31.985346,0.00367497216 L0,127.941787" fill="#FAB20B" transform="translate(63.972942, 63.976105) scale(1, -1) translate(-63.972942, -63.976105) "></path>
		<path d="M255.891766,127.948536 L223.900899,0.00367497216 L137.958916,15.5867304 L127.945679,95.965848 L255.891766,127.941787" fill="#F47216" transform="translate(191.918722, 63.976105) scale(1, -1) translate(-191.918722, -63.976105) "></path>
		<path d="M255.891766,127.954875 L127.945883,159.941244 L142.40929,244.76869 L223.900899,255.891147 L255.891766,127.962646" fill="#F25C19" transform="translate(191.918825, 191.923011) scale(1, -1) translate(-191.918825, -191.923011) "></path>
		<path d="M0,127.948536 L31.985346,255.891147 L109.032103,238.64958 L127.945883,159.935109 L0,127.956307" fill="#F89C0E" transform="translate(63.972942, 191.919841) scale(1, -1) translate(-63.972942, -191.919841) "></path>
		<path d="M127.945883,223.904778 L31.985346,127.94649 L127.945883,31.990248 L223.900899,127.94649 L127.945883,223.900483" fill="#F68712" transform="translate(127.943122, 127.947513) scale(1, -1) translate(-127.943122, -127.947513) "></path>
	</g>
</svg>
